X: 816
T: the Liverpool Hornpipe
%T: crannciuil li\.berpuil
R: hornpipe
%S: s:3 b:24(8+8+8)
B: Francis O'Neill: "The Dance Music of Ireland" (1907) #816
Z: Frank Nordberg - http://www.musicaviva.com
F: http://www.musicaviva.com/abc/tunes/ireland/oneill-1001/0816/oneill-1001-0816-1.abc
M: C|
L: 1/8
K: D
"^A"[|] (AG) |\
FDFA dfaf | gfec dcBA | G2BG F2AF | EDEF GFED "^A2"||\
FDFA dfaf | gfec dcBA | dfaf bgec | d2d2 d2 :|
"^B"|: A2 |\
d2fd c2ec | BABc dcBA | G2BG F2AF | EDEF GFED "^A2"||\
FDFA dfaf | gfec dcBA | dfaf bgec | d2d2 d2 :|
"^C"|: A2 |\
dfdf cece | Bcde dcBA | GBGB FAFA | EFGA GFED "^A3"||\
FDFA dfaf | gefe dcBA | afdf gece | d2d2 d2 :|
